X:9
T:Southrups Wassail
M:4/4
L:1/4
K:G
 D|
 GBBA|G2DD|CA,F,G,-|G,3D|GBBA|G2DF|GFED-|D3D|
 GBBA|G2DD|CCB,A,-|A,3D|GBBA|G2D2-|D2CA,|G,3 |

